src/assets/outline/MessageAdd.svg

<svg width="24" height="24" viewBox="0 0 24 24"  xmlns="http://www.w3.org/2000/svg">
<path d="M15.9998 22.3199C15.6598 22.3199 15.3298 22.22 15.0398 22.03L10.7798 19.1899H8.88977C8.65977 19.1899 8.43974 19.08 8.29974 18.9C8.15974 18.71 8.10977 18.4699 8.16977 18.2499C8.22977 18.0099 8.25977 17.7699 8.25977 17.5099C8.25977 16.7099 7.95977 15.94 7.41977 15.34C6.80977 14.65 5.93977 14.2599 5.00977 14.2599C4.11977 14.2599 3.28975 14.6099 2.67975 15.2399C2.48975 15.4399 2.19976 15.5199 1.93976 15.4399C1.67976 15.3599 1.46976 15.1499 1.40976 14.8799C1.30976 14.4399 1.25977 13.9599 1.25977 13.4399V7.43994C1.25977 3.99994 3.56977 1.68994 7.00977 1.68994H17.0098C20.4498 1.68994 22.7598 3.99994 22.7598 7.43994V13.4399C22.7598 15.1099 22.2098 16.5499 21.1598 17.5999C20.2798 18.4799 19.1098 19.01 17.7598 19.15V20.5699C17.7598 21.2199 17.3997 21.8099 16.8297 22.1199C16.5597 22.2499 16.2798 22.3199 15.9998 22.3199ZM9.74976 17.6799H10.9998C11.1498 17.6799 11.2898 17.7199 11.4198 17.8099L15.8698 20.78C15.9698 20.85 16.0698 20.8199 16.1198 20.7899C16.1698 20.7599 16.2598 20.6999 16.2598 20.5599V18.4299C16.2598 18.0199 16.5998 17.6799 17.0098 17.6799C18.2798 17.6799 19.3498 17.28 20.0998 16.53C20.8598 15.77 21.2598 14.6999 21.2598 13.4299V7.42993C21.2598 4.84993 19.5898 3.17993 17.0098 3.17993H7.00977C4.42977 3.17993 2.75977 4.84993 2.75977 7.42993V13.3099C3.43977 12.9399 4.20977 12.7499 5.00977 12.7499C6.36977 12.7499 7.65976 13.33 8.53976 14.33C9.31976 15.2 9.75977 16.3299 9.75977 17.4999C9.74977 17.5599 9.74976 17.6199 9.74976 17.6799Z" />
<path d="M5 22.25C3.82 22.25 2.69999 21.81 1.82999 21.02C1.47999 20.72 1.16999 20.35 0.929993 19.94C0.489993 19.22 0.25 18.37 0.25 17.5C0.25 16.25 0.729996 15.08 1.59 14.19C2.49 13.26 3.7 12.75 5 12.75C6.36 12.75 7.65 13.33 8.53 14.33C9.31 15.2 9.75 16.33 9.75 17.5C9.75 17.88 9.70001 18.26 9.60001 18.62C9.50001 19.07 9.30999 19.54 9.04999 19.95C8.21999 21.37 6.66 22.25 5 22.25ZM5 14.25C4.11 14.25 3.28001 14.6 2.67001 15.23C2.08001 15.84 1.75 16.64 1.75 17.5C1.75 18.09 1.91 18.67 2.22 19.17C2.38 19.45 2.58999 19.7 2.82999 19.91C3.42999 20.46 4.2 20.76 5 20.76C6.15 20.76 7.19 20.17 7.78 19.19C7.96 18.91 8.07999 18.6 8.14999 18.28C8.21999 18.02 8.25 17.77 8.25 17.51C8.25 16.71 7.95 15.94 7.41 15.34C6.81 14.64 5.93 14.25 5 14.25Z" />
<path d="M6.48999 18.23H3.5C3.09 18.23 2.75 17.89 2.75 17.48C2.75 17.07 3.09 16.73 3.5 16.73H6.48999C6.89999 16.73 7.23999 17.07 7.23999 17.48C7.23999 17.89 6.90999 18.23 6.48999 18.23Z" />
<path d="M5 19.76C4.59 19.76 4.25 19.42 4.25 19.01V16.02C4.25 15.61 4.59 15.27 5 15.27C5.41 15.27 5.75 15.61 5.75 16.02V19.01C5.75 19.43 5.41 19.76 5 19.76Z" />
<path d="M15.5 11.25H8.5C8.09 11.25 7.75 10.91 7.75 10.5C7.75 10.09 8.09 9.75 8.5 9.75H15.5C15.91 9.75 16.25 10.09 16.25 10.5C16.25 10.91 15.91 11.25 15.5 11.25Z" />
</svg>

<?xml version="1.0" encoding="UTF-8"?>
<svg width="24" height="24" viewBox="0 0 24 24" xmlns="http://www.w3.org/2000/svg">
 <path d="m16 22.32c-0.34 0-0.67-0.0999-0.96-0.2899l-4.26-2.8401h-1.89c-0.23 0-0.45003-0.1099-0.59003-0.2899-0.14-0.19-0.18997-0.4301-0.12997-0.6501 0.06-0.24 0.09-0.48 0.09-0.74 0-0.8-0.3-1.5699-0.84-2.1699-0.61-0.69-1.48-1.0801-2.41-1.0801-0.89 0-1.72 0.35-2.33 0.98-0.19 0.2-0.47999 0.28-0.73999 0.2s-0.47-0.29-0.53-0.56c-0.1-0.44-0.14999-0.92-0.14999-1.44v-6c0-3.44 2.31-5.75 5.75-5.75h10c3.44 0 5.75 2.31 5.75 5.75v6c0 1.67-0.55 3.11-1.6 4.16-0.88 0.88-2.05 1.4101-3.4 1.5501v1.4199c0 0.65-0.3601 1.24-0.9301 1.55-0.27 0.13-0.5499 0.2-0.8299 0.2zm-6.25-4.64h1.25c0.15 0 0.29 0.04 0.42 0.13l4.45 2.9701c0.1 0.07 0.2 0.0399 0.25 0.0099s0.14-0.09 0.14-0.23v-2.13c0-0.41 0.34-0.75 0.75-0.75 1.27 0 2.34-0.3999 3.09-1.1499 0.76-0.76 1.16-1.8301 1.16-3.1001v-6c0-2.58-1.67-4.25-4.25-4.25h-10c-2.58 0-4.25 1.67-4.25 4.25v5.88c0.68-0.37 1.45-0.56 2.25-0.56 1.36 0 2.65 0.5801 3.53 1.5801 0.78 0.87 1.22 1.9999 1.22 3.1699-0.01 0.06-0.01001 0.12-0.01001 0.18z"/>
 <path d="m5 22.25c-1.18 0-2.3-0.44-3.17-1.23-0.35-0.3-0.66-0.67-0.9-1.08-0.44-0.72-0.67999-1.57-0.67999-2.44 0-1.25 0.48-2.42 1.34-3.31 0.9-0.93 2.11-1.44 3.41-1.44 1.36 0 2.65 0.58 3.53 1.58 0.78 0.87 1.22 2 1.22 3.17 0 0.38-0.04999 0.76-0.14999 1.12-0.1 0.45-0.29002 0.92-0.55002 1.33-0.83 1.42-2.39 2.3-4.05 2.3zm0-8c-0.89 0-1.72 0.35-2.33 0.98-0.59 0.61-0.92001 1.41-0.92001 2.27 0 0.59 0.16 1.17 0.47 1.67 0.16 0.28 0.36999 0.53 0.60999 0.74 0.6 0.55 1.37 0.85 2.17 0.85 1.15 0 2.19-0.59 2.78-1.57 0.18-0.28 0.29999-0.59 0.36999-0.91 0.07-0.26 0.10001-0.51 0.10001-0.77 0-0.8-0.3-1.57-0.84-2.17-0.6-0.7-1.48-1.09-2.41-1.09z"/>
 <path d="m6.49 18.23h-2.99c-0.41 0-0.75-0.34-0.75-0.75s0.34-0.75 0.75-0.75h2.99c0.41 0 0.75 0.34 0.75 0.75s-0.33 0.75-0.75 0.75z"/>
 <path d="m5 19.76c-0.41 0-0.75-0.34-0.75-0.75v-2.99c0-0.41 0.34-0.75 0.75-0.75s0.75 0.34 0.75 0.75v2.99c0 0.42-0.34 0.75-0.75 0.75z"/>
 <path d="m15.5 11.25h-7c-0.41 0-0.75-0.34-0.75-0.75s0.34-0.75 0.75-0.75h7c0.41 0 0.75 0.34 0.75 0.75s-0.34 0.75-0.75 0.75z"/>
</svg>
